lib/flags/s/044.svg

<svg xmlns="http://www.w3.org/2000/svg" fill="none" viewBox="0 0 16 12"><mask id="044_svg__a" width="16" height="12" x="0" y="0" maskUnits="userSpaceOnUse"><path fill="#fff" d="M0 0h16v12H0z"/></mask><g fill-rule="evenodd" clip-rule="evenodd" mask="url(#044_svg__a)"><path fill="#FECA00" d="M0 0h16v12H0V0z"/><path fill="#3CB1CF" d="M0 0v4h16V0H0zm0 8v4h16V8H0z"/><path fill="#272727" d="M0 0l8 6-8 6V0z"/></g></svg>

<svg xmlns="http://www.w3.org/2000/svg" fill="none" viewBox="0 0 16 12"><mask id="044_svg__a" width="16" height="12" x="0" y="0" mask-type="alpha" maskUnits="userSpaceOnUse"><path fill="#fff" d="M0 0H16V12H0z"/></mask><g fill-rule="evenodd" clip-rule="evenodd" mask="url(#044_svg__a)"><path fill="#FECA00" d="M0 0H16V12H0V0Z"/><path fill="#3CB1CF" d="M0 0V4H16V0H0zM0 8V12H16V8H0z"/><path fill="#272727" d="M0 0L8 6L0 12V0Z"/></g></svg>
